icons/latte/graphql.svg

<svg xmlns="http://www.w3.org/2000/svg" width="16" height="16">
  <path fill="none" stroke="#ea76cb" stroke-linecap="round" stroke-linejoin="round" d="M9 1.5a1 1 0 0 1-1 1 1 1 0 0 1-1-1 1 1 0 0 1 1-1 1 1 0 0 1 1 1zM3.5 4.5a1 1 0 0 1-1 1 1 1 0 0 1-1-1 1 1 0 0 1 1-1 1 1 0 0 1 1 1zM3.5 11.5a1 1 0 0 1-1 1 1 1 0 0 1-1-1 1 1 0 0 1 1-1 1 1 0 0 1 1 1zM14.5 11.5a1 1 0 0 1-1 1 1 1 0 0 1-1-1 1 1 0 0 1 1-1 1 1 0 0 1 1 1zM9 14.5a1 1 0 0 1-1 1 1 1 0 0 1-1-1 1 1 0 0 1 1-1 1 1 0 0 1 1 1zM14.5 4.5a1 1 0 0 1-1 1 1 1 0 0 1-1-1 1 1 0 0 1 1-1 1 1 0 0 1 1 1zM2.5 5.5v5M13.5 5.5v5M3.5 11.5h9M6.5 14l-3-1.5M9.5 14l3-1.5M3.5 10.5l4-8M12.5 10.5l-4-8M3.5 3.5l3-1.5M9.5 2l3 1.5"/>
</svg>

<svg xmlns="http://www.w3.org/2000/svg" width="16" height="16" viewBox="0 0 16 16">
	<path fill="none" stroke="#ea76cb" stroke-linecap="round" stroke-linejoin="round" d="M9 1.5a1 1 0 01-1 1 1 1 0 01-1-1 1 1 0 011-1 1 1 0 011 1m-5.5 3a1 1 0 01-1 1 1 1 0 01-1-1 1 1 0 011-1 1 1 0 011 1m0 7a1 1 0 01-1 1 1 1 0 01-1-1 1 1 0 011-1 1 1 0 011 1m11 0a1 1 0 01-1 1 1 1 0 01-1-1 1 1 0 011-1 1 1 0 011 1m-5.5 3a1 1 0 01-1 1 1 1 0 01-1-1 1 1 0 011-1 1 1 0 011 1m5.5-10a1 1 0 01-1 1 1 1 0 01-1-1 1 1 0 011-1 1 1 0 011 1m-12 1v5m11-5v5m-10 1h9m-6 2.5-3-1.5m6 1.5 3-1.5m-9-2 4-8m5 8-4-8m-5 1 3-1.5m3 0 3 1.5" />
</svg>
